X: 4078
T: LORD McDONALD.(Old.)
R: Strathspey.
%R: strathspey
B: James Kerr "Merry Melodies" v.4 p.11 #78
Z: 2016 John Chambers <jc:trillian.mit.edu>
M: C
L: 1/8
K: D
uA |\
F<A- A(f/g/ a)>fe>d | g>fe>d B<d B<A |\
F<A- A(f/g/ a)>fe>d | (3efg (3fga (e2d) ::\
A |\
F<A- A>B A>BA>F | G<B- B>c B>cB>G |
F<A- A>B A>BA>F | (3GAB (3AGF E2D :|\
|: A |\
F<A- A(f/g/ a)>fe>d | g>fe>d B<d B<A |\
F<A- A(f/g/ a)>fe>d |
(3efg (3fga (e2d ::\
g |\
f<a- a>b a>ba>f | g<b- b>c' b>c'b>g |\
f<a- a>b a>ba>f | (3gbg (3faf e2d :|

%%sep 1 1 500
%%sep 1 1 500

